<?xml version="1.0" encoding="UTF-8"?>
<map version="1.10" tiledversion="1.11.2" orientation="orthogonal" renderorder="right-down" width="36" height="24" tilewidth="32" tileheight="32" infinite="0" nextlayerid="3" nextobjectid="19">
 <tileset firstgid="1" source="../tilesets/transitionTunnels.tsx"/>
 <tileset firstgid="1537" source="../tilesets/transitionTunnels2.tsx"/>
 <layer id="1" name="Tile Layer 1" width="36" height="24">
  <data encoding="csv">
1537,1538,1539,1540,5,6,7,8,9,10,11,12,13,14,15,16,17,18,19,20,21,22,23,24,25,26,27,28,29,30,1567,1568,1569,1570,1571,1572,
1573,1574,1575,1576,41,42,43,44,45,46,47,48,49,50,51,52,53,54,55,56,57,58,59,60,61,62,63,64,65,66,1603,1604,1605,1606,1607,1608,
1609,1610,1611,1612,77,78,79,80,81,82,83,84,85,86,87,88,89,90,91,92,93,94,95,96,97,98,99,100,101,102,1639,1640,1641,1642,1643,1644,
1645,1646,1647,1648,113,114,115,116,117,118,119,120,121,122,123,124,125,126,127,128,129,130,131,132,133,134,135,136,137,138,1675,1676,1677,1678,1679,1680,
1681,1682,1683,1684,149,150,151,152,153,154,155,156,157,158,159,160,161,162,163,164,165,166,167,168,169,170,171,172,173,174,1711,1712,1713,1714,1715,1716,
1717,1718,1719,1720,185,186,187,188,189,190,191,192,193,194,195,196,197,198,199,200,201,202,203,204,205,206,207,208,209,210,1747,1748,1749,1750,1751,1752,
1753,1754,1755,1756,221,222,223,224,225,226,227,228,229,230,231,232,233,234,235,236,237,238,239,240,241,242,243,244,245,246,1783,1784,1785,1786,1787,1788,
1789,1790,1791,1792,257,258,259,260,261,262,263,264,265,266,267,268,269,270,271,272,273,274,275,276,277,278,279,280,281,282,1819,1820,1821,1822,1823,1824,
1825,1826,1827,1828,293,294,295,296,297,298,299,300,301,302,303,304,305,306,307,308,309,310,311,312,313,314,315,316,317,318,1855,1856,1857,1858,1859,1860,
1861,1862,1863,1864,329,330,331,332,333,334,335,336,337,338,339,340,341,342,343,344,345,346,347,348,349,350,351,352,353,354,1891,1892,1893,1894,1895,1896,
1897,1898,1899,1900,365,366,367,368,369,370,371,372,373,374,375,376,377,378,379,380,381,382,383,384,385,386,387,388,389,390,1927,1928,1929,1930,1931,1932,
1933,1934,1935,1936,401,402,403,404,405,406,407,408,409,410,411,412,413,414,415,416,417,418,419,420,421,422,423,424,425,426,1963,1964,1965,1966,1967,1968,
1969,1970,1971,1972,437,438,439,440,441,442,443,444,445,446,447,448,449,450,451,452,453,454,455,456,457,458,459,460,461,462,1999,2000,2001,2002,2003,2004,
2005,2006,2007,2008,473,474,475,476,477,478,479,480,481,482,483,484,485,486,487,488,489,490,491,492,493,494,495,496,497,498,2035,2036,2037,2038,2039,2040,
2041,2042,2043,2044,509,510,511,512,513,514,515,516,517,518,519,520,521,522,523,524,525,526,527,528,529,530,531,532,533,534,2071,2072,2073,2074,2075,2076,
2077,2078,2079,2080,545,546,547,548,549,550,551,552,553,554,555,556,557,558,559,560,561,562,563,564,565,566,567,568,569,570,2107,2108,2109,2110,2111,2112,
2113,2114,2115,2116,581,582,583,584,585,586,587,588,589,590,591,592,593,594,595,596,597,598,599,600,601,602,603,604,605,606,2143,2144,2145,2146,2147,2148,
2149,2150,2151,2152,617,618,619,620,621,622,623,624,625,626,627,628,629,630,631,632,633,634,635,636,637,638,639,640,641,642,2179,2180,2181,2182,2183,2184,
2185,2186,2187,2188,653,654,655,656,657,658,659,660,661,662,663,664,665,666,667,668,669,670,671,672,673,674,675,676,677,678,2215,2216,2217,2218,2219,2220,
2221,2222,2223,2224,689,690,691,692,693,694,695,696,697,698,699,700,701,702,703,704,705,706,707,708,709,710,711,712,713,714,2251,2252,2253,2254,2255,2256,
2257,2258,2259,2260,725,726,727,728,729,730,731,732,733,734,735,736,737,738,739,740,741,742,743,744,745,746,747,748,749,750,2287,2288,2289,2290,2291,2292,
2293,2294,2295,2296,761,762,763,764,765,766,767,768,769,770,771,772,773,774,775,776,777,778,779,780,781,782,783,784,785,786,2323,2324,2325,2326,2327,2328,
2329,2330,2331,2332,797,798,799,800,801,802,803,804,805,806,807,808,809,810,811,812,813,814,815,816,817,818,819,820,821,822,2359,2360,2361,2362,2363,2364,
2365,2366,2367,2368,833,834,835,836,837,838,839,840,841,842,843,844,845,846,847,848,849,850,851,852,853,854,855,856,857,858,2395,2396,2397,2398,2399,2400
</data>
 </layer>
 <objectgroup id="2" name="collisions">
  <object id="1" name="wall" x="34.8222" y="36.8706" width="1091.78" height="73.7411"/>
  <object id="2" name="wall" x="27.652" y="662.646" width="1091.78" height="73.7411"/>
  <object id="3" name="wall" x="483.413" y="52.2333" width="178.21" height="129.047"/>
  <object id="4" name="wall" x="485.461" y="541.792" width="178.21" height="129.047"/>
  <object id="5" name="wall" x="13.3132" y="38.9189" width="32.7761" height="691.323"/>
  <object id="7" name="wall" x="1111.24" y="36.3584" width="32.7761" height="691.323"/>
  <object id="8" name="locker" x="341.051" y="104.467" width="104.469" height="138.265"/>
  <object id="9" name="mainDoor" x="1029.3" y="301.622" width="104.469" height="161.821"/>
  <object id="10" name="locker" x="341.051" y="509.531" width="104.469" height="130.071"/>
  <object id="11" name="backDoor" x="26.6275" y="300.085" width="104.469" height="161.821"/>
  <object id="12" name="wall" x="67.5948" y="114.708" width="238.637" height="22.5322"/>
  <object id="18" name="wall" x="67.0826" y="612.461" width="238.637" height="34.8224"/>
 </objectgroup>
</map>
